X:1
T:A cho-dhalta mo ruin! Seachainn an dun!
T:Dear Foster brother avoid the tower.
M:3/4
L:1/8
R:Air
S:Morison - Highland Airs and Quicksteps, vol. 2, No. 23 (c. 1882)
Z:AK/Fiddler's Companion
K:G
GG/G/ d2c2 | AA/A/(c2A2) | FF/F/ (A2G2) | FF/F/ (A2G2) | GG/G/ d2c2 |
AA/A/ c2A2 | AG2 GG2 | FA2 GG2 | Gc2 FF2 | GA2 GG2 ||
M:2/4
L:1/8
N:"quicker"
G>G d>d | A>A c>c | F>G A>G | A>G A>A | G>G d>d | A>A c>c |
F>G A>G | c>G G>G ||
M:3/4
L:1/8
G/G/G/d2c2 | AA/A/ c2A2 | FF/F/ (A2G2) | FF/F/ (A2G2) | GG/G/ d2c2 |
AA/A/ c2A2 | AG2 GG2 | FA2 GG2 | Gc2FF2 | GA2GG2 ||

